X: 16002
T: Great Canadian
R: reel
M: 4/4
K: Dmajor
A,B, CD FE DB,|DA, DF Ad B^B|BA =GA Bd gf|ed cBAGBAF|ECD2FEDB,|
DA,DFAdB^B|BA=GdBGFd|AFEDCED3/2|ef =ga ec Ae|
cA Ec AE CA,|B,C A,B, DF Bd|cB AG AB cd|ef ga ec eA|
ce cd AF AD|FA FG EG Bg|fe dc [eA][e2A2] [A4e4]|

